src/assets/icons/coment.svg

<svg xmlns="http://www.w3.org/2000/svg" width="20" height="20" viewBox="0 0 20 20" fill="none">
  <path d="M10 20L7.325 16H2C1.45 16 0.979167 15.8042 0.5875 15.4125C0.195833 15.0208 0 14.55 0 14V2C0 1.45 0.195833 0.979167 0.5875 0.5875C0.979167 0.195833 1.45 0 2 0H18C18.55 0 19.0208 0.195833 19.4125 0.5875C19.8042 0.979167 20 1.45 20 2V14C20 14.55 19.8042 15.0208 19.4125 15.4125C19.0208 15.8042 18.55 16 18 16H12.675L10 20ZM10 16.4L11.6 14H18V2H2V14H8.4L10 16.4Z" fill="#979797"/>
</svg>

<svg xmlns="http://www.w3.org/2000/svg" width="20" height="20" viewBox="0 0 20 20" fill="none"><path d="m10 20-2.7-4H2a2 2 0 0 1-1.4-.6A2 2 0 0 1 0 14V2Q0 1.2.6.6A2 2 0 0 1 2 0h16q.9 0 1.4.6.6.6.6 1.4v12q0 .8-.6 1.4a2 2 0 0 1-1.4.6h-5.3zm0-3.6 1.6-2.4H18V2H2v12h6.4z" fill="#979797"/></svg>
